X:1
T: Miss Jane Wedderburn's Reel
C:R. Mackintosh
R:Reel
Q: 232
K:Am
M:4/4
L:1/8
|:e|c1/2A3/2 a3/2^g1/2 ae e=g|B1/2G3/2 g3/2^f1/2 gd dB|c1/2A3/2 a3/2^g1/2 ae af|ec dB cA Ae|
c1/2A3/2 a3/2^g1/2 ae e=g|B1/2G3/2 g3/2^f1/2 gd dB|c1/2A3/2 a3/2^g1/2 ae af|ec dB cA Ac|
AE cA ec ae|^fd gd ec BG|AE cA ec ae|ed cB cA Ac|
AE cA ec ae|^fd gd ec BG|AB cA Bc df|ed cB cA A:|
